X: 38961
T: Swaggering Jig, The
R: slip jig
M: 9/8
K: Dmixolydian
|:A||BAG AGE EDE|BAG AGE c2d|BAG AGF EDE|ABA GFE D2:|
|:A||GBd ded dBG|GBd efg d2c|GBd ded dcB|ABA GFE c2:|

